src/basic/100/u1F5A5u200Du1F310-website.svg

<svg width="147" height="128" viewBox="0 0 147 128" fill="none" xmlns="http://www.w3.org/2000/svg">
<path fill-rule="evenodd" clip-rule="evenodd" d="M33,19h-30c-1.10457,0 -2,0.8954 -2,2v86c0,1.105 0.89543,2 2,2h16v-6c0,-0.552 0.4477,-1 1,-1h13v1h-13v6h13v1h-13h-17c-1.65686,0 -3,-1.343 -3,-3v-86c0,-1.6569 1.34315,-3 3,-3h30zM33,24h-31v-1h31zM33.01,24v-1h39.99v1zM33,27h-13v4h13v1h-13c-0.5523,0 -1,-0.4477 -1,-1v-4c0,-0.5523 0.4477,-1 1,-1h13zM33.01,27v-1h19.99c0.5523,0 1,0.4477 1,1v4c0,0.5523 -0.4477,1 -1,1h-19.99v-1h19.99v-4zM33,35h-13v30h13v1h-13c-0.5523,0 -1,-0.4477 -1,-1v-30c0,-0.5523 0.4477,-1 1,-1h13zM33.01,35v-1h39.99v1zM73,65v1h-39.99v-1zM113,65v1h-39.99v-1zM113.01,65h14.99v-30h-14.99v-1h14.99c0.552,0 1,0.4477 1,1v30c0,0.5523 -0.448,1 -1,1h-14.99zM113,69h-18v30h18v1h-18c-0.5523,0 -1,-0.4477 -1,-1v-30c0,-0.5523 0.4477,-1 1,-1h18zM113.01,69v-1h14.99c0.552,0 1,0.4477 1,1v30c0,0.5523 -0.448,1 -1,1h-14.99v-1h14.99v-30zM113,103h-39.99v-1h39.99zM113.01,103v-1h14.99c0.552,0 1,0.448 1,1v6h15c1.105,0 2,-0.895 2,-2v-86c0,-1.1046 -0.895,-2 -2,-2h-30.99v-1h30.99c1.657,0 3,1.3431 3,3v86c0,1.657 -1.343,3 -3,3h-16h-14.99v-1h14.99v-6zM113,110h-39.99v-1h39.99zM33.01,110v-1h39.99v1zM33.01,102h39.99v1h-39.99zM33.01,99h19.99v-30h-19.99v-1h19.99c0.5523,0 1,0.4477 1,1v30c0,0.5523 -0.4477,1 -1,1h-19.99zM33,69h-13v30h13v1h-13c-0.5523,0 -1,-0.4477 -1,-1v-30c0,-0.5523 0.4477,-1 1,-1h13zM73.01,99h17.99v-30h-17.99v-1h17.99c0.5523,0 1,0.4477 1,1v30c0,0.5523 -0.4477,1 -1,1h-17.99zM73,99v1h-16c-0.5523,0 -1,-0.4477 -1,-1v-30c0,-0.5523 0.4477,-1 1,-1h16v1h-16v30zM113,19h-39.99v-1h39.99zM113,24h-39.99v-1h39.99zM113.01,23h31.99v1h-31.99zM113,34v1h-39.99v-1zM73,19h-39.99v-1h39.99zM2,21c0,-0.5523 0.44772,-1 1,-1c0.55228,0 1,0.4477 1,1c0,0.5523 -0.44772,1 -1,1c-0.55228,0 -1,-0.4477 -1,-1zM7,21c0,0.5523 -0.44772,1 -1,1c-0.55228,0 -1,-0.4477 -1,-1c0,-0.5523 0.44772,-1 1,-1c0.55228,0 1,0.4477 1,1zM8,21c0,-0.5523 0.44771,-1 1,-1c0.55228,0 1,0.4477 1,1c0,0.5523 -0.44772,1 -1,1c-0.55229,0 -1,-0.4477 -1,-1z" fill="black"/>
</svg>

<svg width="147" height="128" viewBox="0 0 147 128" fill="none" xmlns="http://www.w3.org/2000/svg">
<path fill-rule="evenodd" clip-rule="evenodd" d="M33 18L3 18C1.34315 18 0 19.3431 0 21V107C0 108.657 1.34314 110 3 110H20H33V109H20V103H33V102H20C19.4477 102 19 102.448 19 103V109H3C1.89543 109 1 108.105 1 107V21C1 19.8954 1.89543 19 3 19H33V18ZM33 23H2V24H33V23ZM33.01 24V23H73V24H33.01ZM33 26H20C19.4477 26 19 26.4477 19 27V31C19 31.5523 19.4477 32 20 32H33V31H20V27H33V26ZM33.01 27V26H53C53.5523 26 54 26.4477 54 27V31C54 31.5523 53.5523 32 53 32H33.01V31H53V27H33.01ZM33 34H20C19.4477 34 19 34.4477 19 35V65C19 65.5523 19.4477 66 20 66H33V65H20V35H33V34ZM33.01 35V34H73V35H33.01ZM33.01 65V66H73V65H33.01ZM73.01 65V66H113V65H73.01ZM113.01 65H128V35H113.01V34H128C128.552 34 129 34.4477 129 35V65C129 65.5523 128.552 66 128 66H113.01V65ZM113 68H95C94.4477 68 94 68.4477 94 69V99C94 99.5523 94.4477 100 95 100H113V99H95V69H113V68ZM113.01 69V68H128C128.552 68 129 68.4477 129 69V99C129 99.5523 128.552 100 128 100H113.01V99H128V69H113.01ZM113 102H73.01V103H113V102ZM113.01 103V102H128C128.552 102 129 102.448 129 103V109H144C145.105 109 146 108.105 146 107V21C146 19.8954 145.105 19 144 19H113.01V18L144 18C145.657 18 147 19.3431 147 21V107C147 108.657 145.657 110 144 110H128H113.01V109H128V103H113.01ZM113 109H73.01V110H113V109ZM73 110V109H33.01V110H73ZM33.01 103H73V102H33.01V103ZM33.01 100H53C53.5523 100 54 99.5523 54 99V69C54 68.4477 53.5523 68 53 68H33.01V69H53V99H33.01V100ZM33 69H20V99H33V100H20C19.4477 100 19 99.5523 19 99V69C19 68.4477 19.4477 68 20 68H33V69ZM73.01 100H91C91.5523 100 92 99.5523 92 99V69C92 68.4477 91.5523 68 91 68H73.01V69H91V99H73.01V100ZM73 99V100H57C56.4477 100 56 99.5523 56 99V69C56 68.4477 56.4477 68 57 68H73V69H57V99H73ZM113 18H73.01V19H113V18ZM113 23H73.01V24H113V23ZM113.01 24H145V23H113.01V24ZM113 34V35H73.01V34H113ZM73 19H33.01V18L73 18V19ZM3 22C3.55228 22 4 21.5523 4 21C4 20.4477 3.55228 20 3 20C2.44772 20 2 20.4477 2 21C2 21.5523 2.44772 22 3 22ZM7 21C7 21.5523 6.55228 22 6 22C5.44772 22 5 21.5523 5 21C5 20.4477 5.44772 20 6 20C6.55228 20 7 20.4477 7 21ZM9 22C9.55228 22 10 21.5523 10 21C10 20.4477 9.55228 20 9 20C8.44771 20 8 20.4477 8 21C8 21.5523 8.44771 22 9 22Z" fill="black"/>
</svg>
